X:406
T:Puddings And Pies. (p)1698.PLFD.406
M:6/4
L:1/4
Q:3/4=110
S:Playford, Dancing Master,10th Ed,1698
O:England
H:1698.
Z:Chris Partington.
K:D
A|B>cdc>BA|B/c/dBAFA|E3-E2A|B>cdc>BA|
B/c/dBAFA|D3-D2:||:A|BGBAFA|BGBAFA|
E3-E2A|BGBAFA|B/c/dBAFA|D3-D2:|
